svg/u1f237.svg

<svg viewBox="0 0 128 128" xmlns="http://www.w3.org/2000/svg">
  <linearGradient id="a" gradientTransform="translate(0 -4122)" gradientUnits="userSpaceOnUse" x1="64" x2="64" y1="4121.6" y2="4250.1">
    <stop offset="0" stop-color="#FFAB40"/>
    <stop offset="1" stop-color="#FF6D00"/>
  </linearGradient>
  <path d="m116 124h-104c-4.4 0-8-3.6-8-8v-104c0-4.4 3.6-8 8-8h104c4.4 0 8 3.6 8 8v104c0 4.4-3.6 8-8 8z" fill="url(#a)"/>
  <g opacity=".2">
    <path d="m116 7c2.8 0 5 2.2 5 5v104c0 2.8-2.2 5-5 5h-104c-2.8 0-5-2.2-5-5v-104c0-2.8 2.2-5 5-5h104m0-3h-104c-4.4 0-8 3.6-8 8v104c0 4.4 3.6 8 8 8h104c4.4 0 8-3.6 8-8v-104c0-4.4-3.6-8-8-8z" fill="#424242"/>
  </g>
  <g opacity=".2">
    <path d="m94 24.8c1.1 0 2 0.9 2 2v68.4c0 5.7-1.5 8.4-5.3 9.9s-9.8 1.8-18.8 1.8c-0.9 0-1.6-0.6-1.9-1.4-0.5-1.5-1.1-3.3-1.9-5-0.6-1.3 0.3-2.8 1.8-2.8h0.1c2.9 0.1 5.8 0.1 8.1 0.1 2.7 0 4.7 0 5.7-0.1 2.1 0 2.8-0.8 2.8-2.8v-14.6c0-1.1-0.9-2-2-2h-39.4c-0.9 0-1.7 0.6-1.9 1.5-2.4 9.5-6.7 18.8-14.3 25.9-0.4 0.4-0.9 0.6-1.4 0.6s-1.1-0.2-1.4-0.6c-1.1-1.2-2.5-2.5-3.7-3.6-0.9-0.8-0.9-2.1-0.1-2.9 13.2-12.6 14.5-30.3 14.5-44.6v-27.8c0-1.1 0.9-2 2-2h55.1m-46.1 22.6h36.8c1.1 0 2-0.9 2-2v-10.1c0-1.1-0.9-2-2-2h-36.8c-1.1 0-2 0.9-2 2v10.1c0 1.1 0.9 2 2 2m-0.6 22.4h37.5c1.1 0 2-0.9 2-2v-10c0-1.1-0.9-2-2-2h-36.9c-1.1 0-1.9 0.8-2 1.9-0.1 3.2-0.3 6.5-0.6 10-0.1 1.1 0.8 2.1 2 2.1m46.7-48h-55.1c-2.7 0-5 2.2-5 5v27.8c0 15.3-1.7 31-13.6 42.5-1 1-1.6 2.3-1.5 3.7s0.7 2.7 1.8 3.6c1.2 1 2.5 2.2 3.4 3.3 0.9 1 2.3 1.6 3.7 1.6 1.3 0 2.5-0.5 3.4-1.4 7-6.6 12-15.5 14.9-26.6h37.7v13.3c-0.9 0-2.9 0.1-5.6 0.1s-5.5-0.1-8-0.1h-0.2c-1.7 0-3.2 0.8-4.2 2.3-0.9 1.4-1.1 3.2-0.3 4.8 0.7 1.5 1.3 3.2 1.8 4.6 0.6 2.1 2.5 3.5 4.8 3.5 9.9 0 15.7-0.3 19.9-2 6.4-2.4 7.2-8 7.2-12.7v-68.3c-0.1-2.8-2.3-5-5.1-5zm-45.1 14.5h34.8v8h-34.8v-8zm0 22.5h34.8v8h-35.3c0.3-2.7 0.4-5.4 0.5-8z" fill="#424242"/>
  </g>
  <path d="m96 95.2c0 5.7-1.5 8.4-5.3 9.9s-9.8 1.8-18.8 1.8c-0.9 0-1.6-0.6-1.9-1.4-0.5-1.5-1.1-3.3-1.9-5-0.6-1.3 0.4-2.8 1.8-2.8 6.2 0.2 11.9 0.1 13.9 0.1 2.1 0 2.8-0.8 2.8-2.8v-14.7c0-1.1-0.9-2-2-2h-39.4c-0.9 0-1.7 0.6-1.9 1.5-2.4 9.5-6.7 18.8-14.3 25.9-0.8 0.8-2.1 0.7-2.8-0.1-1.1-1.2-2.5-2.5-3.7-3.6-0.9-0.8-0.9-2.1-0.1-2.9 13.2-12.6 14.5-30.3 14.5-44.6v-27.7c0-1.1 0.9-2 2-2h55.1c1.1 0 2 0.9 2 2v68.4zm-9.3-27.3v-10.1c0-1.1-0.9-2-2-2h-36.8c-1.1 0-1.9 0.8-2 1.9-0.1 3.2-0.3 6.5-0.6 10-0.1 1.2 0.8 2.1 2 2.1h37.5c1 0 1.9-0.8 1.9-1.9zm-40.7-32.6v10.1c0 1.1 0.9 2 2 2h36.8c1.1 0 2-0.9 2-2v-10.1c0-1.1-0.9-2-2-2h-36.9c-1.1 0-1.9 0.9-1.9 2z" fill="#FAFAFA"/>
</svg>

<svg viewBox="0 0 128 128" xmlns="http://www.w3.org/2000/svg" xmlns:xlink="http://www.w3.org/1999/xlink">
  <linearGradient id="SVGID_1_" gradientTransform="matrix(1 0 0 1 0 -4121.9702)" gradientUnits="userSpaceOnUse" x1="64" x2="64" y1="4121.6367" y2="4250.0698">
    <stop offset="0" style="stop-color:#FFAB40"/>
    <stop offset="1" style="stop-color:#FF6D00"/>
  </linearGradient>
  <path d="M116,124H12c-4.4,0-8-3.6-8-8V12c0-4.4,3.6-8,8-8h104c4.4,0,8,3.6,8,8v104 C124,120.4,120.4,124,116,124z" fill="url(#SVGID_1_)"/>
  <g opacity="0.2">
    <path d="M116,7c2.8,0,5,2.2,5,5v104c0,2.8-2.2,5-5,5H12c-2.8,0-5-2.2-5-5V12c0-2.8,2.2-5,5-5H116 M116,4H12 c-4.4,0-8,3.6-8,8v104c0,4.4,3.6,8,8,8h104c4.4,0,8-3.6,8-8V12C124,7.6,120.4,4,116,4z" fill="#424242"/>
  </g>
  <g opacity="0.2">
    <path d="M94,24.8c1.1,0,2,0.9,2,2v68.4c0,5.7-1.5,8.4-5.3,9.9s-9.8,1.8-18.8,1.8c-0.9,0-1.6-0.6-1.9-1.4 c-0.5-1.5-1.1-3.3-1.9-5c-0.6-1.3,0.3-2.8,1.8-2.8H70c2.9,0.1,5.8,0.1,8.1,0.1c2.7,0,4.7,0,5.7-0.1c2.1,0,2.8-0.8,2.8-2.8V80.3 c0-1.1-0.9-2-2-2H45.2c-0.9,0-1.7,0.6-1.9,1.5c-2.4,9.5-6.7,18.8-14.3,25.9c-0.4,0.4-0.9,0.6-1.4,0.6s-1.1-0.2-1.4-0.6 c-1.1-1.2-2.5-2.5-3.7-3.6c-0.9-0.8-0.9-2.1-0.1-2.9c13.2-12.6,14.5-30.3,14.5-44.6V26.8c0-1.1,0.9-2,2-2H94 M47.9,47.4h36.8 c1.1,0,2-0.9,2-2V35.3c0-1.1-0.9-2-2-2H47.9c-1.1,0-2,0.9-2,2v10.1C45.9,46.5,46.8,47.4,47.9,47.4 M47.3,69.8h37.5c1.1,0,2-0.9,2-2 v-10c0-1.1-0.9-2-2-2H47.9c-1.1,0-1.9,0.8-2,1.9c-0.1,3.2-0.3,6.5-0.6,10C45.2,68.8,46.1,69.8,47.3,69.8 M94,21.8H38.9 c-2.7,0-5,2.2-5,5v27.8c0,15.3-1.7,31-13.6,42.5c-1,1-1.6,2.3-1.5,3.7s0.7,2.7,1.8,3.6c1.2,1,2.5,2.2,3.4,3.3 c0.9,1,2.3,1.6,3.7,1.6c1.3,0,2.5-0.5,3.4-1.4c7-6.6,12-15.5,14.9-26.6h37.7v13.3c-0.9,0-2.9,0.1-5.6,0.1s-5.5-0.1-8-0.1h-0.2 c-1.7,0-3.2,0.8-4.2,2.3c-0.9,1.4-1.1,3.2-0.3,4.8c0.7,1.5,1.3,3.2,1.8,4.6c0.6,2.1,2.5,3.5,4.8,3.5c9.9,0,15.7-0.3,19.9-2 c6.4-2.4,7.2-8,7.2-12.7V26.8C99,24,96.8,21.8,94,21.8L94,21.8z M48.9,36.3h34.8v8H48.9V36.3z M48.9,58.8h34.8v8H48.4 C48.7,64.1,48.8,61.4,48.9,58.8z" fill="#424242"/>
  </g>
  <path d="M96,95.2c0,5.7-1.5,8.4-5.3,9.9s-9.8,1.8-18.8,1.8c-0.9,0-1.6-0.6-1.9-1.4c-0.5-1.5-1.1-3.3-1.9-5 c-0.6-1.3,0.4-2.8,1.8-2.8c6.2,0.2,11.9,0.1,13.9,0.1c2.1,0,2.8-0.8,2.8-2.8V80.3c0-1.1-0.9-2-2-2H45.2c-0.9,0-1.7,0.6-1.9,1.5 c-2.4,9.5-6.7,18.8-14.3,25.9c-0.8,0.8-2.1,0.7-2.8-0.1c-1.1-1.2-2.5-2.5-3.7-3.6c-0.9-0.8-0.9-2.1-0.1-2.9 c13.2-12.6,14.5-30.3,14.5-44.6V26.8c0-1.1,0.9-2,2-2H94c1.1,0,2,0.9,2,2V95.2z M86.7,67.9V57.8c0-1.1-0.9-2-2-2H47.9 c-1.1,0-1.9,0.8-2,1.9c-0.1,3.2-0.3,6.5-0.6,10c-0.1,1.2,0.8,2.1,2,2.1h37.5C85.8,69.8,86.7,69,86.7,67.9z M46,35.3v10.1 c0,1.1,0.9,2,2,2h36.8c1.1,0,2-0.9,2-2V35.3c0-1.1-0.9-2-2-2H47.9C46.8,33.3,46,34.2,46,35.3z" fill="#FAFAFA"/>
</svg>
